packages/kaspersky-hexa-ui-icons/src/iconsSVGs/24/DeleteSolid.svg

<svg width="24" height="24" viewBox="0 0 24 24" fill="none" xmlns="http://www.w3.org/2000/svg">
<path fill-rule="evenodd" clip-rule="evenodd" d="M6.99414 5C6.99414 3.34315 8.33729 2 9.99414 2H14.006C15.6628 2 17.006 3.34314 17.006 5V5.99399L20 5.99399C20.5523 5.99399 21 6.4417 21 6.99399C21 7.54627 20.5523 7.99399 20 7.99399H18.9807V19C18.9807 20.6569 17.6376 22 15.9807 22H8.01917C6.36231 22 5.01917 20.6569 5.01917 19V7.99399H4C3.44772 7.99399 3 7.54627 3 6.99399C3 6.4417 3.44772 5.99399 4 5.99399H6.99414V5ZM15.006 5V5.99399H8.99414V5C8.99414 4.44772 9.44186 4 9.99414 4H14.006C14.5583 4 15.006 4.44772 15.006 5ZM11 11C11 10.4477 10.5523 10 10 10C9.44772 10 9 10.4477 9 11V17C9 17.5523 9.44772 18 10 18C10.5523 18 11 17.5523 11 17V11ZM14 10C14.5523 10 15 10.4477 15 11V17C15 17.5523 14.5523 18 14 18C13.4477 18 13 17.5523 13 17V11C13 10.4477 13.4477 10 14 10Z" fill="black"/>
</svg>

<svg xmlns="http://www.w3.org/2000/svg" width="24" height="24" fill="none" viewBox="0 0 24 24"><path fill="#000" fill-rule="evenodd" d="M6.9941 5c0-1.6568 1.3432-3 3-3h4.0119c1.6568 0 3 1.3431 3 3v.994H20c.5523 0 1 .4477 1 1s-.4477 1-1 1h-1.0193V19c0 1.6569-1.3431 3-3 3H8.0192c-1.6569 0-3-1.3431-3-3V7.994H4c-.5523 0-1-.4477-1-1s.4477-1 1-1h2.9941zm8.0119 0v.994H8.9941V5c0-.5523.4478-1 1-1h4.0119c.5523 0 1 .4477 1 1M11 11c0-.5523-.4477-1-1-1s-1 .4477-1 1v6c0 .5523.4477 1 1 1s1-.4477 1-1zm3-1c.5523 0 1 .4477 1 1v6c0 .5523-.4477 1-1 1s-1-.4477-1-1v-6c0-.5523.4477-1 1-1"/></svg>
